brandFactory_export/2.Regular/Pagar factura_2Regular.svg

<?xml version="1.0" encoding="UTF-8"?>
<svg width="24px" height="24px" viewBox="0 0 24 24" version="1.1" xmlns="http://www.w3.org/2000/svg" xmlns:xlink="http://www.w3.org/1999/xlink">
    <title>2.Regular/Pagar factura_2Regular</title>
    <g id="Symbols" stroke="none" stroke-width="1" fill="none" fill-rule="evenodd">
        <g id="2.Regular/Pagar-factura_2Regular" fill="#5CB615" fill-rule="nonzero">
            <path d="M16.7193277,8.15347789e-13 C16.897479,8.15347789e-13 17.0689076,0.0705882353 17.1966387,0.198319328 L23.4420168,6.4605042 C23.5663866,6.58487395 23.6369748,6.75630252 23.6369748,6.93445378 L23.6369748,22.2722689 C23.6369748,23.1260504 23.1058824,23.6571429 22.2521008,23.6605042 C22.0785961,23.659219 21.465773,23.6584252 20.5782241,23.6579349 L6.97478992,23.6571429 C6.53445378,23.6571429 6.18487395,23.5294118 5.93613445,23.2739496 C5.68739496,23.0184874 5.55966387,22.6722689 5.55966387,22.2319328 L5.55966435,14.7786516 C3.91200848,14.6712486 2.60183578,14.1591009 1.66386555,13.2537815 C0.561344538,12.1882353 4.08537204e-10,10.6084034 4.08537204e-10,8.56470588 C4.08537204e-10,6.5210084 0.561344538,4.94117647 1.66386555,3.87563025 C2.60183578,2.97031089 3.91200848,2.45816315 5.55966435,2.35076014 L5.55966387,1.41176471 C5.55966387,0.544537815 6.10084034,0.00672268908 6.97142857,0.00672268908 C7.83529412,8.15347789e-13 13.4084034,8.15347789e-13 16.7193277,8.15347789e-13 Z M16.047,1.344 L10.6208916,1.34499298 C8.84321623,1.34542419 7.38196684,1.34626391 6.97478992,1.34789916 C6.94789916,1.34789916 6.92436975,1.34789916 6.90756303,1.3512605 C6.90756303,1.36806723 6.90420168,1.38487395 6.90420168,1.41176471 L6.90426597,2.3479146 C8.66040023,2.4477114 9.97430349,2.95208463 10.907563,3.88235294 C11.9563025,4.92773109 12.4672269,6.4605042 12.4672269,8.56470588 C12.4672269,10.6117647 11.9058824,12.1882353 10.8033613,13.2537815 C9.86223519,14.1592814 8.55400247,14.6714529 6.90413923,14.7787158 L6.90420168,22.2352941 C6.90420168,22.2621849 6.90420168,22.2857143 6.90756303,22.312605 C6.92436975,22.312605 6.94789916,22.3159664 6.97815126,22.3159664 L22.2890756,22.3159664 L22.289,7.606 L19.1462185,7.60672269 C18.1176471,7.60672269 17.287395,7.21680672 16.7462185,6.48067227 C16.2857143,5.85546218 16.0504202,5.01512605 16.0470588,3.98655462 L16.047,1.344 Z M19.9966387,18.0605042 C20.3663866,18.0605042 20.6689076,18.3630252 20.6689076,18.7327731 C20.6689076,19.102521 20.3697479,19.405042 19.9966387,19.405042 L10.1647059,19.405042 C9.79495798,19.405042 9.49243698,19.102521 9.49243698,18.7327731 C9.49243698,18.3630252 9.79495798,18.0605042 10.1647059,18.0605042 L19.9966387,18.0605042 Z M19.9966387,14.1277311 C20.3663866,14.1277311 20.6689076,14.4302521 20.6689076,14.8 C20.6689076,15.1697479 20.3697479,15.4722689 19.9966387,15.4722689 L11.4756303,15.4722689 C11.1058824,15.4722689 10.8033613,15.1697479 10.8033613,14.8 C10.8033613,14.4302521 11.1058824,14.1277311 11.4756303,14.1277311 L19.9966387,14.1277311 Z M6.27351976,3.67402293 L6.23193277,3.67731092 L6.23193277,3.67731092 L6.19,3.674 L5.97590567,3.67727533 C2.86143532,3.75933099 1.34453782,5.36054843 1.34453782,8.56470588 C1.34453782,11.8554622 2.94453782,13.4554622 6.23193277,13.4554622 C9.51932773,13.4554622 11.1193277,11.8554622 11.1193277,8.56470588 C11.1193277,6.83697479 10.7394958,5.61680672 9.95630252,4.83361345 C9.17942035,4.05673128 7.97588485,3.68004332 6.27351976,3.67402293 Z M6.23193277,4.23193277 C6.51092437,4.23193277 6.73613445,4.45714286 6.73613445,4.73613445 L6.73712909,5.29169523 C7.16031425,5.350795 7.5521584,5.48424082 7.87226891,5.68067227 C8.11764706,5.83193277 8.15462185,6.0302521 8.15462185,6.13445378 C8.15462185,6.4 7.93613445,6.61848739 7.67058824,6.61848739 C7.5697479,6.61512605 7.47226891,6.58823529 7.38487395,6.54117647 L7.37815126,6.53781513 C7.15954947,6.41823808 6.949256,6.33500989 6.73688001,6.28466694 L6.736,8.031 L6.76883235,8.03692147 C8.18993821,8.28639418 8.49747899,9.14051882 8.49747899,9.82857143 C8.49747899,10.4033613 8.28571429,10.8907563 7.88907563,11.2369748 C7.59576018,11.4911815 7.20290823,11.6600712 6.73766256,11.7333038 L6.73613445,12.1781513 C6.73613445,12.4537815 6.51092437,12.6823529 6.23193277,12.6823529 C5.95294118,12.6823529 5.72773109,12.4571429 5.72773109,12.1781513 L5.72769338,11.7402943 C5.19793859,11.6650664 4.69010107,11.4683539 4.24537815,11.1596639 C4.08739496,11.0487395 4.01008403,10.9008403 4.01008403,10.7226891 C4.01344538,10.4470588 4.23529412,10.2285714 4.51092437,10.2285714 C4.62521008,10.2319328 4.73613445,10.2655462 4.8302521,10.3294118 C5.12802545,10.5272183 5.42849053,10.6644609 5.72738924,10.7385844 L5.72575531,8.88952034 C4.4375414,8.61382522 4.15462185,7.8037553 4.15462185,7.14957983 C4.15462185,6.16260504 4.75670039,5.47543068 5.72686253,5.30077943 L5.72773109,4.73613445 C5.72773109,4.45714286 5.95294118,4.23193277 6.23193277,4.23193277 Z M19.9966387,9.5394958 C20.3663866,9.5394958 20.6689076,9.84201681 20.6689076,10.2117647 C20.6689076,10.5815126 20.3697479,10.8840336 19.9966387,10.8840336 L14.097479,10.8840336 C13.7277311,10.8840336 13.4252101,10.5815126 13.4252101,10.2117647 C13.4252101,9.84201681 13.7277311,9.5394958 14.097479,9.5394958 L19.9966387,9.5394958 Z M6.73827588,9.05368698 L6.73770927,10.7466212 C7.22098533,10.6238751 7.50588235,10.3083189 7.50588235,9.86218487 C7.50588235,9.5399661 7.40186634,9.22258529 6.73827588,9.05368698 Z M5.14621849,7.10588235 C5.14621849,7.29019778 5.14621849,7.63584717 5.72654205,7.84423379 L5.72688709,6.29867956 C5.35714607,6.42462069 5.14621849,6.70724644 5.14621849,7.10588235 Z M17.3915966,2.29915966 L17.3915966,3.97983193 C17.3915966,4.7092437 17.5428571,5.29747899 17.8285714,5.68067227 C18.1142857,6.06386555 18.5445378,6.25882353 19.1462185,6.25882353 L21.337,6.258 L17.764,2.673 L17.3915966,2.29915966 Z" id="Pagar-factura_2Regular"></path>
        </g>
    </g>
</svg>

<svg width="24" height="24" viewBox="0 0 24 24" xmlns="http://www.w3.org/2000/svg"><path d="M16.72 0c.177 0 .349.07.477.198l6.245 6.263a.672.672 0 01.195.473v15.338c0 .854-.531 1.385-1.385 1.389-.173-.002-.786-.003-1.674-.003H6.975c-.44 0-.79-.129-1.039-.384-.249-.256-.376-.602-.376-1.042v-7.453c-1.648-.108-2.958-.62-3.896-1.525C.56 12.188 0 10.608 0 8.564c0-2.043.561-3.623 1.664-4.688.938-.906 2.248-1.418 3.896-1.525v-.94C5.56.546 6.1.008 6.97.008 7.835 0 13.408 0 16.72 0zm-.673 1.344l-5.426.001c-1.778 0-3.239.001-3.646.003-.027 0-.05 0-.067.003 0 .017-.004.034-.004.06v.937c1.756.1 3.07.604 4.004 1.534 1.048 1.046 1.56 2.579 1.56 4.683 0 2.047-.562 3.623-1.665 4.689-.94.905-2.249 1.417-3.899 1.525v7.456c0 .027 0 .05.004.078.016 0 .04.003.07.003H22.29V7.606h-3.143c-1.028 0-1.859-.39-2.4-1.125-.46-.626-.696-1.466-.699-2.494V1.344zm3.95 16.717a.672.672 0 110 1.345l-9.832-.001a.674.674 0 01-.673-.672c0-.37.303-.672.673-.672h9.832zm0-3.933a.672.672 0 110 1.345h-8.521a.674.674 0 01-.673-.673c0-.37.303-.672.673-.672h8.52zM6.274 3.674l-.042.003-.042-.003-.214.003C2.86 3.76 1.345 5.361 1.345 8.565c0 3.29 1.6 4.89 4.887 4.89 3.287 0 4.887-1.6 4.887-4.89 0-1.728-.38-2.948-1.163-3.731-.777-.777-1.98-1.154-3.682-1.16zm-.042.558c.279 0 .504.225.504.504l.001.556c.423.059.815.192 1.135.389.246.15.283.35.283.453a.486.486 0 01-.484.484.648.648 0 01-.286-.077l-.007-.003a2.56 2.56 0 00-.641-.253L6.736 8.03l.033.006c1.42.25 1.728 1.104 1.728 1.792 0 .574-.211 1.062-.608 1.408-.293.254-.686.423-1.151.496l-.002.445a.504.504 0 11-1.008 0v-.438a3.448 3.448 0 01-1.483-.58.512.512 0 01-.235-.437.499.499 0 01.5-.494.598.598 0 01.32.1c.298.198.598.335.897.41l-.001-1.85c-1.288-.275-1.571-1.085-1.571-1.74 0-.986.602-1.674 1.572-1.848v-.565c0-.279.226-.504.505-.504zm13.765 5.307a.672.672 0 110 1.345h-5.9a.674.674 0 01-.672-.672c0-.37.303-.673.672-.673h5.9zM6.738 9.054v1.693c.483-.123.768-.439.768-.885 0-.322-.104-.64-.768-.808zM5.146 7.106c0 .184 0 .53.58.738V6.3c-.369.126-.58.408-.58.807zm12.246-4.807v1.68c0 .73.15 1.318.437 1.702.285.383.716.578 1.317.578l2.191-.001-3.573-3.585-.372-.374z" fill="#5CB615" fill-rule="nonzero"/></svg>
